local/share/icons/dracula-icons-main/24/actions/zoom-2-to-1.svg

<?xml version="1.0" encoding="UTF-8"?>
<svg xmlns="http://www.w3.org/2000/svg" xmlns:xlink="http://www.w3.org/1999/xlink" width="24" height="24" viewBox="0 0 24 24">
<path fill-rule="nonzero" fill="rgb(100%, 100%, 100%)" fill-opacity="1" d="M 18 4 C 19.109375 4 20 4.890625 20 6 L 20 7 L 19 7 L 19 6 C 19 5.445312 18.554688 5 18 5 L 17 5 L 17 4 Z M 7 4 L 7 5 L 6 5 C 5.445312 5 5 5.445312 5 6 L 5 7 L 4 7 L 4 6 C 4 4.890625 4.890625 4 6 4 Z M 10 6 C 10.554688 6 11 6.445312 11 7 L 11 17 C 11 17.554688 10.554688 18 10 18 L 7 18 C 6.445312 18 6 17.554688 6 17 L 6 7 C 6 6.445312 6.445312 6 7 6 Z M 17 9 C 17.554688 9 18 9.445312 18 10 L 18 14 C 18 14.554688 17.554688 15 17 15 L 16 15 C 15.445312 15 15 14.554688 15 14 L 15 10 C 15 9.445312 15.445312 9 16 9 Z M 12 10 L 12 14 L 14 12 Z M 20 17 L 20 18 C 20 19.109375 19.109375 20 18 20 L 17 20 L 17 19 L 18 19 C 18.554688 19 19 18.554688 19 18 L 19 17 Z M 5 17 L 5 18 C 5 18.554688 5.445312 19 6 19 L 7 19 L 7 20 L 6 20 C 4.890625 20 4 19.109375 4 18 L 4 17 Z M 5 17 "/>
</svg>

<svg width="24" height="24" version="1.1" viewBox="0 0 24 24" xmlns="http://www.w3.org/2000/svg">
 <defs>
  <style id="current-color-scheme" type="text/css">.ColorScheme-Text {
        color:#FFFFFF;
      }</style>
 </defs>
 <path class="ColorScheme-Text" d="m18 4c1.108 0 2 0.892 2 2v1h-1v-1c0-0.554-0.446-1-1-1h-1v-1zm-11 0v1h-1c-0.554 0-1 0.446-1 1v1h-1v-1c0-1.108 0.892-2 2-2zm3 2c0.554 0 1 0.446 1 1v10c0 0.554-0.446 1-1 1h-3c-0.554 0-1-0.446-1-1v-10c0-0.554 0.446-1 1-1zm7 3c0.554 0 1 0.446 1 1v4c0 0.554-0.446 1-1 1h-1c-0.554 0-1-0.446-1-1v-4c0-0.554 0.446-1 1-1zm-5 1v4l2-2zm8 7v1c0 1.108-0.892 2-2 2h-1v-1h1c0.554 0 1-0.446 1-1v-1zm-15 0v1c0 0.554 0.446 1 1 1h1v1h-1c-1.108 0-2-0.892-2-2v-1z" fill="currentColor"/>
</svg>
